client/SVG/bakker.svg

<svg width="441" height="769" viewBox="0 0 441 769" fill="none" xmlns="http://www.w3.org/2000/svg">
<path d="M125.71 767.93C119.26 765.75 117.35 762.4 116.8 755.71C116.07 746.91 119.76 739.84 124.47 733.04C127.18 729.13 128.32 725.63 125.86 720.75C123.67 716.4 122.86 711.23 122.14 706.32C121.82 704.11 122.59 701.19 123.94 699.4C127.14 695.17 128.2 690.57 126.91 685.75C120.7 662.56 125.76 639.35 126.4 616.14C126.91 597.49 127.36 578.83 127.56 560.17C127.58 558.65 125.79 556.75 124.36 555.67C122.82 554.51 120.71 554.12 118.85 553.4C115.58 552.12 114.77 549.96 115.11 546.35C117.9 516.84 120.29 487.29 123.09 457.79C126.23 424.64 129.65 391.52 133.01 358.39C133.38 354.77 134.44 351.22 134.65 347.6C134.85 344.3 134.37 341.15 130.72 339.21C129.67 338.65 128.86 335.24 129.55 334.23C131.51 331.37 132.01 328.95 130.86 325.58C130.25 323.82 130.97 321.19 131.91 319.39C135.01 313.47 134.97 307.51 134.23 301C133.38 293.53 134.03 285.88 134.03 278.31C133.67 278.24 133.32 278.17 132.96 278.09C131.42 281.12 129.88 284.14 128.34 287.17C122.35 298.94 112.92 307.01 101.16 312.65C96.7101 314.78 92.3101 314.8 88.3101 312.13C82.8001 308.44 77.3801 304.56 72.3701 300.25C69.9601 298.18 67.9701 297.25 64.8501 297.95C61.9501 298.6 58.9101 298.88 55.9301 298.87C49.7701 298.85 48.2001 297.46 49.1201 291.46C50.9601 279.46 52.8401 267.41 55.7701 255.64C57.4601 248.85 56.6701 244.54 50.9401 240C44.1001 234.58 38.6601 226.92 37.8801 218.28C37.3001 211.87 34.9401 204.5 39.8601 198.12C40.7501 196.97 40.2901 194.09 39.5101 192.46C29.3101 170.96 18.6301 149.68 8.79007 128.02C5.11007 119.91 3.09007 111.01 0.750072 102.35C-0.0999281 99.2197 -0.149928 95.6897 0.270072 92.4397C1.34007 84.1897 8.56007 80.6697 15.7901 84.8197C24.4801 89.8097 30.7001 97.4197 36.7101 105.05C31.2201 108.73 25.9701 112.24 20.7201 115.76C20.9501 116.17 21.1801 116.58 21.4101 116.99C27.6001 116.02 33.7701 114.84 40.0001 114.23C41.6801 114.07 44.1301 115.16 45.1901 116.5C48.5601 120.77 51.4401 125.43 54.2301 129.53C47.3801 134.4 40.9701 138.94 34.5701 143.49C34.8401 143.93 35.1101 144.37 35.3801 144.81C42.4101 143.06 49.4601 141.41 56.4501 139.51C58.9801 138.83 60.4101 139.34 61.6601 141.71C64.1301 146.41 66.8801 150.96 69.5001 155.56C63.6301 160 57.8601 164.36 52.0901 168.71C52.3401 169.18 52.5801 169.65 52.8301 170.11C59.8701 168.15 66.9201 166.19 74.2001 164.17C76.8901 169.29 79.4201 174.11 81.8901 178.81C76.0601 183.13 70.4301 187.3 64.8101 191.47L65.5801 192.77C72.4801 191.17 79.3901 189.58 86.6101 187.91C89.4401 193.75 92.1701 199.38 94.8201 204.87C89.1501 208.66 83.8801 212.19 78.6001 215.72C78.8201 216.13 79.0301 216.54 79.2501 216.95C84.4201 215.81 89.6401 214.84 94.7401 213.46C97.4101 212.74 98.7301 213.42 99.6901 215.9C101.84 221.45 104.16 226.93 106.41 232.44C100.61 235.81 95.2801 238.9 89.9501 242C90.1401 242.5 90.3201 243 90.5101 243.5C96.6701 242.69 102.83 241.87 109.52 240.99C113.79 252.58 118.55 264.1 117.89 276.9C117.38 286.82 109.9 290.8 101.66 285.14C97.0801 281.99 92.8101 277.91 89.5701 273.4C81.8201 262.59 74.7601 251.28 67.4201 240.17C66.8001 239.24 66.2201 238.28 65.1301 237.52C65.2601 238.1 65.2301 238.78 65.5401 239.25C74.3001 252.59 82.8501 266.07 92.0301 279.11C94.6001 282.76 98.7001 285.72 102.71 287.88C110.26 291.95 117.25 288.47 119 280.11C119.67 276.91 119.97 273.41 119.44 270.22C117.52 258.75 115.05 247.51 108.95 237.21C106.25 232.66 105.6 226.91 103.95 221.73C103.5 220.31 103.05 218.76 102.15 217.63C97.2701 211.55 98.7601 205.48 101.64 199.15C103.91 194.16 105.75 188.97 107.68 183.82C110.98 175 117.11 169.15 125.87 165.8C138.62 160.93 151.28 155.83 164.03 150.98C167.69 149.59 170.21 147.44 171.73 143.77C172.73 141.35 174 138.66 175.95 137.09C179.98 133.86 179.45 130.61 177.68 126.53C174.12 118.34 170.49 110.13 167.71 101.65C166.36 97.5397 165.09 93.0197 168.63 88.3997C170.22 86.3297 168.9 82.0297 168.9 78.7497C165.01 78.0797 161.87 77.8297 158.89 76.9797C153.46 75.4297 149.54 72.2197 147.95 66.4097C147.48 64.6997 145.96 63.0797 144.54 61.8797C139.47 57.5997 137.53 52.4297 139.01 45.8697C140.72 38.2797 142.4 30.7897 150.61 27.2597C151.32 26.9497 152.14 26.2397 152.36 25.5397C154.33 19.0897 159.91 15.7497 164.09 11.1297C168.75 5.96967 174.13 4.70967 180.47 4.19967C186.55 3.70967 192.69 2.89967 198.57 1.35967C205.82 -0.540328 212.55 -0.780329 219.37 2.85967C221.73 4.11967 224.77 4.54967 227.49 4.53967C232.47 4.51967 236.41 6.18967 240.07 9.54967C242.95 12.1997 246.69 13.8897 249.7 16.4297C252.02 18.3897 254.1 20.7897 255.73 23.3497C258.21 27.2497 259.87 31.6897 262.48 35.4897C267.59 42.9297 267.59 50.8097 262.1 58.0997C260.62 60.0597 259.25 62.2097 258.37 64.4897C255.71 71.3397 252.1 74.1797 243.74 75.0597V50.4497C245.66 49.9797 247.84 49.4397 250.89 48.6897C247.1 48.0197 244.24 47.5097 241.98 47.1097C241.98 59.3197 241.9 72.0897 242.06 84.8597C242.09 86.9597 243.15 89.0597 243.76 91.1497C244.07 92.2397 244.88 93.4097 244.69 94.3797C243.27 101.42 242.65 108.37 238.14 114.89C234.49 120.15 233.91 127.59 232.24 134.13C232.01 135.02 233.32 136.34 233.99 137.42C235.14 139.24 236.92 140.87 237.43 142.84C239.08 149.18 243.34 152.37 249.22 154.43C258.64 157.73 267.78 161.92 277.32 164.8C288.94 168.32 296.33 175.37 299.19 187.12C302.49 200.7 305.7 214.31 308.97 227.9C309.86 231.61 310.81 235.31 311.75 239.07C304.5 241.8 297.25 244.1 290.37 247.23C283.61 250.3 276.95 253.77 270.79 257.89C266.33 260.87 263.92 265.8 265.25 271.44C266.53 276.89 271.22 278.89 275.99 279.99C280 280.91 284.24 281.38 288.35 281.27C333.82 280.05 379.29 278.68 424.76 277.36C427.76 277.27 430.76 277.27 433.76 277.25C437.15 277.22 439.71 278.34 440.04 282.15C440.37 285.88 438.99 288.77 435.26 289.91C433.38 290.48 431.32 290.6 429.34 290.66C418.02 291.06 406.67 291.91 395.37 291.54C387.31 291.27 380.12 293.97 372.64 295.78C370.74 296.24 368.59 296.97 367.28 298.3C360.75 304.96 352.09 306.23 343.65 307.96C339.69 308.77 337.52 310.57 335.83 314.44C333 320.93 329.74 327.45 325.48 333.06C320.52 339.59 314.62 340.15 307.93 335.35C303.52 332.19 299.87 327.95 295.94 324.14C291.75 320.09 287.64 315.96 283.47 311.88C282.92 311.34 282.28 310.89 280.38 309.32C281.11 316.71 281.25 322.81 282.44 328.69C283.47 333.76 282.94 337.62 279.01 341.33C277.64 342.62 277.23 345.77 277.54 347.9C279.54 361.57 282.58 375.13 283.93 388.85C286.7 417.03 288.86 445.27 290.83 473.52C292.46 496.79 293.45 520.1 294.74 543.39C295.14 550.53 295.19 551.21 288.11 552.33C282.13 553.28 281.22 556.22 280.78 561.56C277.88 596.91 280.5 632.17 282.06 667.45C282.24 671.44 282.17 675.45 282.24 679.44C282.32 683.3 280.99 687.43 284.85 690.51C285.51 691.04 285.4 692.7 285.42 693.84C285.46 696.17 285.66 698.56 285.24 700.83C283.28 711.48 287.45 718.97 296.47 724.46C301.72 727.66 306.88 731.12 311.6 735.04C315.09 737.95 318.49 741.41 320.67 745.32C323.49 750.37 321.51 754.25 315.98 756.31C302.42 761.35 289 760.16 276.19 754.06C269.63 750.93 263.84 746.22 257.45 742.69C254.58 741.11 251.03 740.78 247.85 739.71C241.76 737.67 235.69 735.56 229.67 733.33C228.9 733.04 228.08 731.91 227.93 731.06C226.22 720.92 224.61 710.75 223.07 700.58C222.93 699.68 223.21 698.48 223.75 697.76C227.07 693.32 226.91 688.28 225.88 683.37C220.79 659.24 221.43 634.68 220.14 610.26C219.37 595.79 218.65 581.32 217.85 566.85C217.75 565.08 217.33 563.32 217.11 561.86H193.75C191.8 572.57 190.32 582.94 187.98 593.1C182.93 615.08 182.55 637.33 182.82 659.7C182.94 669.85 182.02 680.02 182.13 690.17C182.17 694.15 183.2 698.35 184.79 702.01C186.53 706 187.24 709.61 184.98 713.38C181.74 718.78 177.62 723.77 175.19 729.5C172.77 735.22 170.54 740.76 166.1 745.29C165.22 746.19 165.83 748.51 165.67 750.17C164.66 760.42 159.86 766.21 149.86 768.87" fill="black"/>
</svg>

<?xml version="1.0" encoding="UTF-8"?><svg id="Layer_1" xmlns="http://www.w3.org/2000/svg" viewBox="0 0 440.07 768.86"><defs><style>.cls-1{fill:#2b2b2b;}</style></defs><path class="cls-1" d="M125.7,767.92c-6.45-2.18-8.36-5.53-8.91-12.22-.73-8.8,2.96-15.87,7.67-22.67,2.71-3.91,3.85-7.41,1.39-12.29-2.19-4.35-3-9.52-3.72-14.43-.32-2.21,.45-5.13,1.8-6.92,3.2-4.23,4.26-8.83,2.97-13.65-6.21-23.19-1.15-46.4-.51-69.61,.51-18.65,.96-37.31,1.16-55.97,.02-1.52-1.77-3.42-3.2-4.5-1.54-1.16-3.65-1.55-5.51-2.27-3.27-1.28-4.08-3.44-3.74-7.05,2.79-29.51,5.18-59.06,7.98-88.56,3.14-33.15,6.56-66.27,9.92-99.4,.37-3.62,1.43-7.17,1.64-10.79,.2-3.3-.28-6.45-3.93-8.39-1.05-.56-1.86-3.97-1.17-4.98,1.96-2.86,2.46-5.28,1.31-8.65-.61-1.76,.11-4.39,1.05-6.19,3.1-5.92,3.06-11.88,2.32-18.39-.85-7.47-.2-15.12-.2-22.69-.36-.07-.71-.14-1.07-.22-1.54,3.03-3.08,6.05-4.62,9.08-5.99,11.77-15.42,19.84-27.18,25.48-4.45,2.13-8.85,2.15-12.85-.52-5.51-3.69-10.93-7.57-15.94-11.88-2.41-2.07-4.4-3-7.52-2.3-2.9,.65-5.94,.93-8.92,.92-6.16-.02-7.73-1.41-6.81-7.41,1.84-12,3.72-24.05,6.65-35.82,1.69-6.79,.9-11.1-4.83-15.64-6.84-5.42-12.28-13.08-13.06-21.72-.58-6.41-2.94-13.78,1.98-20.16,.89-1.15,.43-4.03-.35-5.66-10.2-21.5-20.88-42.78-30.72-64.44-3.68-8.11-5.7-17.01-8.04-25.67-.85-3.13-.9-6.66-.48-9.91,1.07-8.25,8.29-11.77,15.52-7.62,8.69,4.99,14.91,12.6,20.92,20.23-5.49,3.68-10.74,7.19-15.99,10.71,.23,.41,.46,.82,.69,1.23,6.19-.97,12.36-2.15,18.59-2.76,1.68-.16,4.13,.93,5.19,2.27,3.37,4.27,6.25,8.93,9.04,13.03-6.85,4.87-13.26,9.41-19.66,13.96l.81,1.32c7.03-1.75,14.08-3.4,21.07-5.3,2.53-.68,3.96-.17,5.21,2.2,2.47,4.7,5.22,9.25,7.84,13.85-5.87,4.44-11.64,8.8-17.41,13.15,.25,.47,.49,.94,.74,1.4,7.04-1.96,14.09-3.92,21.37-5.94,2.69,5.12,5.22,9.94,7.69,14.64-5.83,4.32-11.46,8.49-17.08,12.66l.77,1.3c6.9-1.6,13.81-3.19,21.03-4.86,2.83,5.84,5.56,11.47,8.21,16.96-5.67,3.79-10.94,7.32-16.22,10.85,.22,.41,.43,.82,.65,1.23,5.17-1.14,10.39-2.11,15.49-3.49,2.67-.72,3.99-.04,4.95,2.44,2.15,5.55,4.47,11.03,6.72,16.54-5.8,3.37-11.13,6.46-16.46,9.56,.19,.5,.37,1,.56,1.5,6.16-.81,12.32-1.63,19.01-2.51,4.27,11.59,9.03,23.11,8.37,35.91-.51,9.92-7.99,13.9-16.23,8.24-4.58-3.15-8.85-7.23-12.09-11.74-7.75-10.81-14.81-22.12-22.15-33.23-.62-.93-1.2-1.89-2.29-2.65,.13,.58,.1,1.26,.41,1.73,8.76,13.34,17.31,26.82,26.49,39.86,2.57,3.65,6.67,6.61,10.68,8.77,7.55,4.07,14.54,.59,16.29-7.77,.67-3.2,.97-6.7,.44-9.89-1.92-11.47-4.39-22.71-10.49-33.01-2.7-4.55-3.35-10.3-5-15.48-.45-1.42-.9-2.97-1.8-4.1-4.88-6.08-3.39-12.15-.51-18.48,2.27-4.99,4.11-10.18,6.04-15.33,3.3-8.82,9.43-14.67,18.19-18.02,12.75-4.87,25.41-9.97,38.16-14.82,3.66-1.39,6.18-3.54,7.7-7.21,1-2.42,2.27-5.11,4.22-6.68,4.03-3.23,3.5-6.48,1.73-10.56-3.56-8.19-7.19-16.4-9.97-24.88-1.35-4.11-2.62-8.63,.92-13.25,1.59-2.07,.27-6.37,.27-9.65-3.89-.67-7.03-.92-10.01-1.77-5.43-1.55-9.35-4.76-10.94-10.57-.47-1.71-1.99-3.33-3.41-4.53-5.07-4.28-7.01-9.45-5.53-16.01,1.71-7.59,3.39-15.08,11.6-18.61,.71-.31,1.53-1.02,1.75-1.72,1.97-6.45,7.55-9.79,11.73-14.41,4.66-5.16,10.04-6.42,16.38-6.93,6.08-.49,12.22-1.3,18.1-2.84,7.25-1.9,13.98-2.14,20.8,1.5,2.36,1.26,5.4,1.69,8.12,1.68,4.98-.02,8.92,1.65,12.58,5.01,2.88,2.65,6.62,4.34,9.63,6.88,2.32,1.96,4.4,4.36,6.03,6.92,2.48,3.9,4.14,8.34,6.75,12.14,5.11,7.44,5.11,15.32-.38,22.61-1.48,1.96-2.85,4.11-3.73,6.39-2.66,6.85-6.27,9.69-14.63,10.57v-24.61c1.92-.47,4.1-1.01,7.15-1.76-3.79-.67-6.65-1.18-8.91-1.58,0,12.21-.08,24.98,.08,37.75,.03,2.1,1.09,4.2,1.7,6.29,.31,1.09,1.12,2.26,.93,3.23-1.42,7.04-2.04,13.99-6.55,20.51-3.65,5.26-4.23,12.7-5.9,19.24-.23,.89,1.08,2.21,1.75,3.29,1.15,1.82,2.93,3.45,3.44,5.42,1.65,6.34,5.91,9.53,11.79,11.59,9.42,3.3,18.56,7.49,28.1,10.37,11.62,3.52,19.01,10.57,21.87,22.32,3.3,13.58,6.51,27.19,9.78,40.78,.89,3.71,1.84,7.41,2.78,11.17-7.25,2.73-14.5,5.03-21.38,8.16-6.76,3.07-13.42,6.54-19.58,10.66-4.46,2.98-6.87,7.91-5.54,13.55,1.28,5.45,5.97,7.45,10.74,8.55,4.01,.92,8.25,1.39,12.36,1.28,45.47-1.22,90.94-2.59,136.41-3.91,3-.09,6-.09,9-.11,3.39-.03,5.95,1.09,6.28,4.9,.33,3.73-1.05,6.62-4.78,7.76-1.88,.57-3.94,.69-5.92,.75-11.32,.4-22.67,1.25-33.97,.88-8.06-.27-15.25,2.43-22.73,4.24-1.9,.46-4.05,1.19-5.36,2.52-6.53,6.66-15.19,7.93-23.63,9.66-3.96,.81-6.13,2.61-7.82,6.48-2.83,6.49-6.09,13.01-10.35,18.62-4.96,6.53-10.86,7.09-17.55,2.29-4.41-3.16-8.06-7.4-11.99-11.21-4.19-4.05-8.3-8.18-12.47-12.26-.55-.54-1.19-.99-3.09-2.56,.73,7.39,.87,13.49,2.06,19.37,1.03,5.07,.5,8.93-3.43,12.64-1.37,1.29-1.78,4.44-1.47,6.57,2,13.67,5.04,27.23,6.39,40.95,2.77,28.18,4.93,56.42,6.9,84.67,1.63,23.27,2.62,46.58,3.91,69.87,.4,7.14,.45,7.82-6.63,8.94-5.98,.95-6.89,3.89-7.33,9.23-2.9,35.35-.28,70.61,1.28,105.89,.18,3.99,.11,8,.18,11.99,.08,3.86-1.25,7.99,2.61,11.07,.66,.53,.55,2.19,.57,3.33,.04,2.33,.24,4.72-.18,6.99-1.96,10.65,2.21,18.14,11.23,23.63,5.25,3.2,10.41,6.66,15.13,10.58,3.49,2.91,6.89,6.37,9.07,10.28,2.82,5.05,.84,8.93-4.69,10.99-13.56,5.04-26.98,3.85-39.79-2.25-6.56-3.13-12.35-7.84-18.74-11.37-2.87-1.58-6.42-1.91-9.6-2.98-6.09-2.04-12.16-4.15-18.18-6.38-.77-.29-1.59-1.42-1.74-2.27-1.71-10.14-3.32-20.31-4.86-30.48-.14-.9,.14-2.1,.68-2.82,3.32-4.44,3.16-9.48,2.13-14.39-5.09-24.13-4.45-48.69-5.74-73.11-.77-14.47-1.49-28.94-2.29-43.41-.1-1.77-.52-3.53-.74-4.99h-23.36c-1.95,10.71-3.43,21.08-5.77,31.24-5.05,21.98-5.43,44.23-5.16,66.6,.12,10.15-.8,20.32-.69,30.47,.04,3.98,1.07,8.18,2.66,11.84,1.74,3.99,2.45,7.6,.19,11.37-3.24,5.4-7.36,10.39-9.79,16.12-2.42,5.72-4.65,11.26-9.09,15.79-.88,.9-.27,3.22-.43,4.88-1.01,10.25-5.81,16.04-15.81,18.7"/></svg>
